icons/swap-fill.svg

<svg viewBox="0 0 24 24" fill="currentColor" xmlns="http://www.w3.org/2000/svg">
    <path d="M12.0049 22.0027C6.48204 22.0027 2.00488 17.5256 2.00488 12.0027C2.00488 6.4799 6.48204 2.00275 12.0049 2.00275C17.5277 2.00275 22.0049 6.4799 22.0049 12.0027C22.0049 17.5256 17.5277 22.0027 12.0049 22.0027ZM7.00488 9.00275H9.00488V13.0027H11.0049V9.00275H13.0049L10.0049 5.50275L7.00488 9.00275ZM17.0049 15.0027H15.0049V11.0027H13.0049V15.0027H11.0049L14.0049 18.5027L17.0049 15.0027Z"/>
</svg>

<svg xmlns="http://www.w3.org/2000/svg" viewBox="0 0 24 24">
    <g>
        <path fill="none" d="M0 0h24v24H0z"/>
        <path d="M12 22C6.477 22 2 17.523 2 12S6.477 2 12 2s10 4.477 10 10-4.477 10-10 10zM7 9h2v4h2V9h2l-3-3.5L7 9zm10 6h-2v-4h-2v4h-2l3 3.5 3-3.5z"/>
    </g>
</svg>
